!!!COM: Henri Reber
!!!CNT: Francais
!!!TXO: Francais
!!!OTL: L'Hermite
!!!LYR: Cle/ment Marot
!!!ODT: 1846/
!!!ENC: Jacob Pegg
!!!YOR: Romantic French Song 1830-1870, David Tunley, ed., New York: Garland Publishing, Inc., 1995, vol. 3
!!NB: Vocal melody and text only encoded.
!!NB: First instance of melodic material only encoded.
**kern	**silbe
*clef G2	*
*k[b-e-]	*
*M3/4	*
=7	=7
{4b-	{Puis-
4b-	-que
4a	de
=8	=8
2g	vous
8a	je
8a	n'ai
=9	=9
(4.b-	au-
8dd)	|
8cc	-tre
8b-	vi-
=10	=10
2a	-sa-
4a}	-ge,}
=11	=11
{4a	{Je
4a	m'en-
4a	-vais
=12	=12
2a	rendre
4a	her-
=13	=13
4.b-	-mite
8a	en
8g	un
8b-	de/-
=14	=14
2.f}	-sert,}
=15	=15
{4g	{Pour
4g	pri-
4g	-er
=16	=16
2.g	Dieu,
=17	=17
4g	pour
4g	pri-
4g	-er
=18	=18
2a	Dieu,
8a	si
8b-	quel-
=19	=19
2a	-qu'au-
8g	-tre
8g	vous
=20	=20
4.f}	sert,}
{8f	{Qu'au-
8.f	-tant
16f	que
=21	=21
4.g	moi,
8g	en
8a	votre
8a	hon-
=22	=22
8.b-	-neur
16cc	soit
(4b-	sa-
4a)	|
=23	=23
4b-}	-ge.}
4r	.
4r	.
=24	=24
{4b-	{Je
4b-	m'en-
4b-	-vais
=25	=25
2b-	ren-
4b-	-dre her-
=26	=26
4.b-	-mite
8b-	en
8b-	un
8b-	de/-
=27	=27
2.b-}	-sert.}
=28	=28
4r	.
4r	.
{4dd	{A-
=29	=29
2dd	-dieu,
4bn	a-
=30	=30
2bn	-mours,
4dd	a-
=31	=31
4.ee-	-dieu,
8cc	gen-
8cc	-til
8ee-	cor-
=32	=32
4b-	-sa-
8b-}	-ge,}
8r	.
{4ee-	{A-
=33	=33
(2.ee-	-dieu,
=34	=34
4dd)}	|}
8r	.
{8dd	{ces
(ddq	si
8ff)	|
8ee-	beaux
=35	=35
2a}	yeux;}
4r	.
=36	=36
{4b-	{Je
4b-	n'ai
4a	pas
=37	=37
2g	eu
4a	de
=38	=38
4.b-	vous
8dd	grand
8cc	a-
8b-	-van-
=39	=39
2a	-ta-
4a}	-ge;}
=40	=40
{4a	{Un
4b-	moins
4cc	ai-
=41	=41
2dd	-mant
4cc	au-
=42	=42
8.b-	-ra
16cc	peut~
(4b-	~e^-
8a)	|
8a	-tre
=43	=43
2.cc}	mieux.}
=44	=44
{4ee-	{Un
4dd	moins
4cc	ai-
=45	=45
2b-	-mant
4a	au-
=46	=46
8.g	-ra
16a	peut~
(4g	~e^-
8f#)	|
8f#	-tre
=47	=47
[2.g	mieux.
=48	=48
4g]}	|}
4r	.
4r	.
*-	*-
